X: 995
T: Twin Sisters
B: jims roots
M:C
L:1/8
R: Reel
Q: 1/4=100
K:D
V:1 
(A2|:"D"A)FDF A3(A|"G"B)ABd e2 de|"D"fedf eefe|dfed "G"B2 dB|
"D"AFDF A3A|"G"BABd e2 de|fedf "A"eefe|1 "D"d2 dd d3B:|2 "D"d2 dd d3f||
|:"D"a2fg a3a | fefg a2 f2- | "D"ffaf "A"eefe | "D"dBed "G"BAfg | "D"a2fg a3e |
fefg a2Jf2- | "D"ffaf "A"eefe |[1 "D"d2dd d2fg:|[2 "D"d2dd d4||
% abcbook-tune_id 6298c297e462ea7154056d59


% abcbook-boost 0
% abcbook-tablature 
% abcbook-transpose 
% abcbook-lastupdated 1654178456476
% abcbook-soundfonts 
% abcbook-repeats 1


